svg/u1faf1_1f3fc.svg

<svg viewBox="0 0 128 128" xmlns="http://www.w3.org/2000/svg" xmlns:xlink="http://www.w3.org/1999/xlink">
  <g id="handGroup">
    <radialGradient id="hand_1_" cx="500.6629" cy="-2126.9841" gradientTransform="matrix(-0.0224 -0.9997 0.9997 -0.0224 2232.4707 520.3432)" gradientUnits="userSpaceOnUse" r="89.6842">
      <stop offset="0.3533" stop-color="#E0BB95"/>
      <stop offset="0.8723" stop-color="#CCA47A"/>
    </radialGradient>
    <path id="hand" d="M36.51,106.34c4.97,0.43,55.39,0.01,55.95,0.01c2.26-0.05,4.13-0.55,5.38-1.46 c1.3-0.94,1.9-2.27,1.86-4.08c-0.04-1.69-0.66-3.15-1.79-4.23c-1.38-1.32-3.43-2.02-5.75-1.96l-22.73,0.06 c-0.4,0-0.76-0.16-1.03-0.41c-0.28-0.27-0.45-0.63-0.46-1.04c-0.02-0.81,0.62-1.48,1.42-1.5l37.58-1.45 c3.71-0.08,7.37-2.13,7.27-6.53c-0.04-1.69-0.66-3.15-1.79-4.23c-1.38-1.32-3.43-2.02-5.75-1.96l-37.38,0.36 c-0.4,0-0.77-0.15-1.04-0.41s-0.45-0.63-0.46-1.04c-0.02-0.81,0.61-1.48,1.43-1.51l46.01-1.6c2.1-0.05,3.98-0.72,5.3-1.86 c1.33-1.17,2.01-2.78,1.97-4.67c-0.04-1.69-0.66-3.15-1.79-4.23c-1.38-1.32-3.43-2.02-5.74-1.97L69.2,61.07 c-0.4,0-0.77-0.15-1.04-0.41c-0.27-0.26-0.45-0.63-0.46-1.04c-0.02-0.81,0.61-1.48,1.43-1.51l34.12-1.23 c2.12-0.05,3.99-0.71,5.3-1.86c1.33-1.17,2.01-2.78,1.97-4.67c-0.04-1.69-0.66-3.15-1.79-4.23c-1.38-1.32-3.43-2.02-5.75-1.96 c-12.24,0.16-44.2,0.61-45.33,0.68c-3.52-0.56-1.82-3.18-0.56-4.71c1.47-1.78,8.95-5.78,12.84-12.07 c4.79-8.74-1.68-12.75-1.85-12.81c-4.27-1.44-5.68,1.16-8.61,6.32l-0.68,0.92c-4.09,6.48-27.01,15.35-28.71,16.03 C20.94,42.17,5,52.03,5.49,74.08C6.03,98.26,27.39,106.55,36.51,106.34z" fill="url(#hand_1_)"/>
    <path id="tone_2_" d="M29.54,37.15l0.16-0.06C41.36,32.51,53,27,58,20c3.39-4.74,5.69-8.51,10.54-6.15 c0.52,0.25,2.84,1.74,3.97,4.63c0.83,2.11,1.28,5.61-1.33,10.36c-1.62,2.62-5.15,5.57-8.56,8.42c-1.7,1.42-3.31,2.76-4.51,3.93 c-0.69,0.67-0.78,1.14-0.77,1.35c0.01,0.38,0.01,0.75,1.46,0.75c0.53-0.02,5.41-0.13,5.41-0.13l0.1,2.85l-7.43,0.17 c-1.81,0-3.05-1-3.17-2.2c-0.18-1.93,0.9-3.51,2.34-4.91c1.28-1.25,2.93-2.62,4.67-4.08c3.08-2.57,6.57-5.49,7.9-7.64 c3.85-7.04-0.53-10.32-1.17-10.75c-2.65-1.42-3.46,0.39-7.59,5.5c-1.67,2.06-4.15,4.72-9.82,8.26c-8,5-15.19,7.86-19.26,9.46 l-0.15,0.06C23.35,42.8,6.47,51.93,6.97,74.04c0.54,24.01,21.82,31,29.51,30.82l0.16,0c2.85,0.25,22.12,0.25,54.28,0.01 c0.94-0.01,1.49-0.01,1.51-0.01c1.94-0.04,3.56-0.46,4.54-1.18c0.89-0.65,1.28-1.53,1.25-2.86c-0.03-1.29-0.49-2.39-1.33-3.2 c-1.1-1.05-2.76-1.6-4.72-1.55l-22.72,0.06c-1.56,0.01-2.93-1.33-2.97-2.89c-0.04-1.61,1.24-2.96,2.84-3.01l37.61-1.45 c2.74-0.06,5.91-1.41,5.83-5.02c-0.07-2.96-2.6-4.84-6.04-4.75l-37.39,0.36c-1.57,0.01-2.95-1.34-2.98-2.89 c-0.04-1.62,1.25-2.97,2.86-3.02l46.03-1.6c1.75-0.04,3.3-0.57,4.35-1.49c1.01-0.89,1.5-2.08,1.47-3.52 c-0.07-2.96-2.6-4.83-6.03-4.76l-45.8,0.45c-1.57,0.01-2.95-1.34-2.98-2.89c-0.04-1.62,1.25-2.97,2.85-3.02l34.14-1.23 c1.76-0.04,3.31-0.57,4.35-1.49c1.01-0.89,1.5-2.08,1.47-3.52c-0.07-2.96-2.61-4.84-6.04-4.75l-38.89,0.37L64,43.17 c6.32-0.09,18.18-0.21,29-0.35l9.95-0.13c2.72-0.07,5.13,0.77,6.8,2.37c1.42,1.36,2.2,3.18,2.24,5.27c0.05,2.33-0.8,4.33-2.47,5.81 c-1.57,1.38-3.78,2.18-6.22,2.23L69.19,59.6l45.77-0.45c2.71-0.06,5.13,0.78,6.79,2.38c1.42,1.36,2.2,3.18,2.24,5.27 c0.05,2.33-0.8,4.33-2.47,5.81c-1.58,1.38-3.8,2.17-6.22,2.22l-46.01,1.6l37.36-0.36c2.72-0.07,5.13,0.77,6.8,2.37 c1.42,1.36,2.2,3.18,2.24,5.27c0.12,5.39-4.43,7.95-8.69,8.04l-37.59,1.44l22.69-0.06c2.72-0.07,5.13,0.77,6.8,2.37 c1.42,1.36,2.2,3.18,2.25,5.27c0.05,2.3-0.78,4.09-2.47,5.31c-1.49,1.08-3.64,1.68-6.25,1.74c-0.07,0-0.6,0-1.51,0.01 c-22.66,0.17-50.41,0.3-54.48-0.02c-4.95,0.08-14.86-2.46-22.44-9.7c-5.5-5.26-9.77-13-10.02-24.01 C3.47,50.14,21.68,40.28,29.54,37.15z" fill="#BA8F63"/>
    <g id="tone_1_">
      <path d="M59.05,97.28c1.05,0.35,1.43,1.52,0.53,2.14c-0.34,0.24-1.4,0.8-4.2,0.97 c-1.8,0-3.57-0.83-3.88-1.1c-1.17-0.99-0.85-1.89,0.44-2.24C53.05,96.75,57.24,96.67,59.05,97.28z" fill="#BA8F63"/>
      <path d="M59.05,52.77c1.05,0.35,1.43,1.52,0.53,2.14c-0.34,0.24-1.4,0.8-4.2,0.97 c-1.8,0-3.57-0.83-3.88-1.1c-1.17-0.99-0.85-1.89,0.44-2.24C53.05,52.24,57.24,52.16,59.05,52.77z" fill="#BA8F63"/>
      <path d="M60.22,67.92c1.37,0.11,1.63,2.06,0.16,2.86c-0.55,0.3-1.94,1.05-4.96,1.05 c-2.97,0-4.54-1-5.21-1.56c-1.03-0.86-0.22-2.22,1.14-2.38C54.04,67.59,57.21,67.69,60.22,67.92z" fill="#BA8F63"/>
      <path d="M59.37,84.74c2.35,0.39,2.42,1.64,1.36,2.22c-0.6,0.33-1.83,1.25-4.86,1.25 c-1.97,0-4.31-0.79-4.79-1.13c-0.97-0.7-0.74-1.81,0.37-2.3C52.52,84.32,57.31,84.4,59.37,84.74z" fill="#BA8F63"/>
    </g>
  </g>
</svg>

<svg viewBox="0 0 128 128" xmlns="http://www.w3.org/2000/svg">
  <defs>
    <radialGradient id="hand_1_" cx="-69.587511" cy="93.3791" gradientTransform="matrix(-0.0224 -0.9997 0.9997 -0.0224 0 0)" gradientUnits="userSpaceOnUse" r="89.6842">
      <stop offset="0.3533" stop-color="#E0BB95"/>
      <stop offset="0.8723" stop-color="#CCA47A"/>
    </radialGradient>
  </defs>
  <path id="hand" d="M36.51,106.34 C41.48,106.77 91.9,106.35 92.46,106.35 C94.72,106.3 96.59,105.8 97.84,104.89 C99.14,103.95 99.74,102.62 99.7,100.81 C99.66,99.12 99.04,97.66 97.91,96.58 C96.53,95.26 94.48,94.56 92.16,94.62 L69.43,94.68 C69.03,94.68 68.67,94.52 68.4,94.27 C68.12,94 67.95,93.64 67.94,93.23 C67.92,92.42 68.56,91.75 69.36,91.73 L106.94,90.28 C110.65,90.2 114.31,88.15 114.21,83.75 C114.17,82.06 113.55,80.6 112.42,79.52 C111.04,78.2 108.99,77.5 106.67,77.56 L69.29,77.92 C68.89,77.92 68.52,77.77 68.25,77.51 C67.98,77.25 67.8,76.88 67.79,76.47 C67.77,75.66 68.4,74.99 69.22,74.96 L115.23,73.36 C117.33,73.31 119.21,72.64 120.53,71.5 C121.86,70.33 122.54,68.72 122.5,66.83 C122.46,65.14 121.84,63.68 120.71,62.6 C119.33,61.28 117.28,60.58 114.97,60.63 L69.2,61.07 C68.8,61.07 68.43,60.92 68.16,60.66 C67.89,60.4 67.71,60.03 67.7,59.62 C67.68,58.81 68.31,58.14 69.13,58.11 L103.25,56.88 C105.37,56.83 107.24,56.17 108.55,55.02 C109.88,53.85 110.56,52.24 110.52,50.35 C110.48,48.66 109.86,47.2 108.73,46.12 C107.35,44.8 105.3,44.1 102.98,44.16 C90.74,44.32 58.78,44.77 57.65,44.84 C54.13,44.28 55.83,41.66 57.09,40.13 C58.56,38.35 66.04,34.35 69.93,28.06 C74.72,19.32 68.25,15.31 68.08,15.25 C63.81,13.81 62.4,16.41 59.47,21.57 L58.79,22.49 C54.7,28.97 31.78,37.84 30.08,38.52 C20.94,42.17 5,52.03 5.49,74.08 C6.03,98.26 27.39,106.55 36.51,106.34 Z" fill="url(#hand_1_)"/>
  <path id="tone_2_" d="M29.54,37.15 L29.7,37.09 C41.36,32.51 53,27 58,20 C61.39,15.26 63.69,11.49 68.54,13.85 C69.06,14.1 71.38,15.59 72.51,18.48 C73.34,20.59 73.79,24.09 71.18,28.84 C69.56,31.46 66.03,34.41 62.62,37.26 C60.92,38.68 59.31,40.02 58.11,41.19 C57.42,41.86 57.33,42.33 57.34,42.54 C57.35,42.92 57.35,43.29 58.8,43.29 C59.33,43.27 64.21,43.16 64.21,43.16 L64.31,46.01 L56.88,46.18 C55.07,46.18 53.83,45.18 53.71,43.98 C53.53,42.05 54.61,40.47 56.05,39.07 C57.33,37.82 58.98,36.45 60.72,34.99 C63.8,32.42 67.29,29.5 68.62,27.35 C72.47,20.31 68.09,17.03 67.45,16.6 C64.8,15.18 63.99,16.99 59.86,22.1 C58.19,24.16 55.71,26.82 50.04,30.36 C42.04,35.36 34.85,38.22 30.78,39.82 L30.63,39.88 C23.35,42.8 6.47,51.93 6.97,74.04 C7.51,98.05 28.79,105.04 36.48,104.86 L36.64,104.86 C39.49,105.11 58.76,105.11 90.92,104.87 C91.86,104.86 92.41,104.86 92.43,104.86 C94.37,104.82 95.99,104.4 96.97,103.68 C97.86,103.03 98.25,102.15 98.22,100.82 C98.19,99.53 97.73,98.43 96.89,97.62 C95.79,96.57 94.13,96.02 92.17,96.07 L69.45,96.13 C67.89,96.14 66.52,94.8 66.48,93.24 C66.44,91.63 67.72,90.28 69.32,90.23 L106.93,88.78 C109.67,88.72 112.84,87.37 112.76,83.76 C112.69,80.8 110.16,78.92 106.72,79.01 L69.33,79.37 C67.76,79.38 66.38,78.03 66.35,76.48 C66.31,74.86 67.6,73.51 69.21,73.46 L115.24,71.86 C116.99,71.82 118.54,71.29 119.59,70.37 C120.6,69.48 121.09,68.29 121.06,66.85 C120.99,63.89 118.46,62.02 115.03,62.09 L69.23,62.54 C67.66,62.55 66.28,61.2 66.25,59.65 C66.21,58.03 67.5,56.68 69.1,56.63 L103.24,55.4 C105,55.36 106.55,54.83 107.59,53.91 C108.6,53.02 109.09,51.83 109.06,50.39 C108.99,47.43 106.45,45.55 103.02,45.64 L64.13,46.01 L64,43.17 C70.32,43.08 82.18,42.96 93,42.82 L102.95,42.69 C105.67,42.62 108.08,43.46 109.75,45.06 C111.17,46.42 111.95,48.24 111.99,50.33 C112.04,52.66 111.19,54.66 109.52,56.14 C107.95,57.52 105.74,58.32 103.3,58.37 L69.19,59.6 L114.96,59.15 C117.67,59.09 120.09,59.93 121.75,61.53 C123.17,62.89 123.95,64.71 123.99,66.8 C124.04,69.13 123.19,71.13 121.52,72.61 C119.94,73.99 117.72,74.78 115.3,74.83 L69.29,76.43 L106.65,76.07 C109.37,76 111.78,76.84 113.45,78.44 C114.87,79.8 115.65,81.62 115.69,83.71 C115.81,89.1 111.26,91.66 107,91.75 L69.41,93.19 L92.1,93.13 C94.82,93.06 97.23,93.9 98.9,95.5 C100.32,96.86 101.1,98.68 101.15,100.77 C101.2,103.07 100.37,104.86 98.68,106.08 C97.19,107.16 95.04,107.76 92.43,107.82 C92.36,107.82 91.83,107.82 90.92,107.83 C68.26,108 40.51,108.13 36.44,107.81 C31.49,107.89 21.58,105.35 14,98.11 C8.5,92.85 4.23,85.11 3.98,74.1 C3.47,50.14 21.68,40.28 29.54,37.15 Z" fill="#BA8F63"/>
  <path d="M59.05,97.28 C60.1,97.63 60.48,98.8 59.58,99.42 C59.24,99.66 58.18,100.22 55.38,100.39 C53.58,100.39 51.81,99.56 51.5,99.29 C50.33,98.3 50.65,97.4 51.94,97.05 C53.05,96.75 57.24,96.67 59.05,97.28 Z" fill="#BA8F63"/>
  <path d="M59.05,52.77 C60.1,53.12 60.48,54.29 59.58,54.91 C59.24,55.15 58.18,55.71 55.38,55.88 C53.58,55.88 51.81,55.05 51.5,54.78 C50.33,53.79 50.65,52.89 51.94,52.54 C53.05,52.24 57.24,52.16 59.05,52.77 Z" fill="#BA8F63"/>
  <path d="M60.22,67.92 C61.59,68.03 61.85,69.98 60.38,70.78 C59.83,71.08 58.44,71.83 55.42,71.83 C52.45,71.83 50.88,70.83 50.21,70.27 C49.18,69.41 49.99,68.05 51.35,67.89 C54.04,67.59 57.21,67.69 60.22,67.92 Z" fill="#BA8F63"/>
  <path d="M59.37,84.74 C61.72,85.13 61.79,86.38 60.73,86.96 C60.13,87.29 58.9,88.21 55.87,88.21 C53.9,88.21 51.56,87.42 51.08,87.08 C50.11,86.38 50.34,85.27 51.45,84.78 C52.52,84.32 57.31,84.4 59.37,84.74 Z" fill="#BA8F63"/>
</svg>
